X: 4217
T: KATIE SLOAN
R: Jig
%R: jig
B: James Kerr "Merry Melodies" v.4 p.24 #217
Z: 2016 John Chambers <jc:trillian.mit.edu>
M: 6/8
L: 1/8
K: G
|:\
d2B c2A | BAG GFE | DEF GAB | c2B ABc |\
d2B c2A | BAG GFE | DEF GAB | cAF G3 :|
|:\
d2B e2c | def gdB | cde dcB | ABG FED |\
d2B e2c | def gdB | A^ce gfe | ded ^cBA :|

%%sep 1 1 500
%%sep 1 1 500

